video_pipeline/assets/cinematic.cube
# Cinematic Warm LUT — auto-generated for A/B testing pipeline
TITLE "Cinematic Warm"
LUT_3D_SIZE 17
0.000000 0.017986 0.075288
0.000000 0.017986 0.074927
0.009850 0.017986 0.074349
0.038887 0.017986 0.073443
0.083153 0.017986 0.072060
0.147720 0.017986 0.070044
0.236075 0.017986 0.067285
0.346983 0.017986 0.063822
0.472046 0.017986 0.059917
0.597109 0.017986 0.056012
0.708017 0.017986 0.052548
0.796372 0.017986 0.049789
0.860939 0.017986 0.047773
0.905205 0.017986 0.046391
0.934242 0.017986 0.045484
0.952741 0.017986 0.044907
0.964308 0.017986 0.044545
0.000000 0.029312 0.074073
0.000000 0.029312 0.073712
0.010660 0.029312 0.073134
0.039697 0.029312 0.072228
0.083963 0.029312 0.070845
0.148530 0.029312 0.068829
0.236885 0.029312 0.066070
0.347793 0.029312 0.062607
0.472856 0.029312 0.058702
0.597919 0.029312 0.054797
0.708827 0.029312 0.051333
0.797182 0.029312 0.048574
0.861749 0.029312 0.046558
0.906015 0.029312 0.045176
0.935052 0.029312 0.044269
0.953551 0.029312 0.043692
0.965118 0.029312 0.043330
0.000000 0.047426 0.072130
0.000000 0.047426 0.071769
0.011956 0.047426 0.071191
0.040993 0.047426 0.070284
0.085259 0.047426 0.068902
0.149826 0.047426 0.066886
0.238181 0.047426 0.064127
0.349089 0.047426 0.060664
0.474152 0.047426 0.056759
0.599215 0.047426 0.052853
0.710123 0.047426 0.049390
0.798478 0.047426 0.046631
0.863045 0.047426 0.044615
0.907311 0.047426 0.043233
0.936348 0.047426 0.042326
0.954846 0.047426 0.041748
0.966413 0.047426 0.041387
0.000000 0.068455 0.069080
0.000000 0.069295 0.068719
0.013989 0.070639 0.068141
0.043026 0.072749 0.067234
0.087292 0.075858 0.065852
0.151859 0.075858 0.063836
0.240214 0.075858 0.061077
0.351122 0.075858 0.057614
0.476185 0.075858 0.053708
0.601248 0.075858 0.049803
0.712156 0.075858 0.046340
0.800511 0.075858 0.043581
0.865078 0.075858 0.041565
0.909344 0.075858 0.040182
0.938381 0.075858 0.039276
0.956880 0.075858 0.038698
0.968447 0.075858 0.038337
0.000000 0.105182 0.064430
0.000000 0.106022 0.064069
0.017089 0.107366 0.063491
0.046126 0.109476 0.062584
0.090392 0.112692 0.061202
0.154959 0.119203 0.059186
0.243314 0.119203 0.056427
0.354222 0.119203 0.052964
0.479285 0.119203 0.049058
0.604348 0.119203 0.045153
0.715256 0.119203 0.041690
0.803611 0.119203 0.038931
0.868178 0.119203 0.036915
0.912444 0.119203 0.035532
0.941481 0.119203 0.034626
0.959980 0.119203 0.034048
0.971547 0.119203 0.033687
0.000000 0.158751 0.057647
0.003112 0.159592 0.057286
0.021611 0.160936 0.056708
0.050648 0.163045 0.055802
0.094914 0.166262 0.054419
0.159481 0.170953 0.052403
0.247836 0.182426 0.049644
0.358744 0.182426 0.046181
0.483807 0.182426 0.042276
0.608870 0.182426 0.038371
0.719778 0.182426 0.034907
0.808133 0.182426 0.032148
0.872700 0.182426 0.030132
0.916966 0.182426 0.028750
0.946003 0.182426 0.027843
0.964502 0.182426 0.027266
0.976068 0.182426 0.026904
0.000000 0.232058 0.048366
0.009300 0.232898 0.048005
0.027799 0.234242 0.047427
0.056835 0.236352 0.046520
0.101102 0.239568 0.045138
0.165668 0.244259 0.043122
0.254024 0.250679 0.040363
0.364932 0.268941 0.036900
0.489995 0.268941 0.032994
0.615057 0.268941 0.029089
0.725965 0.268941 0.025626
0.814321 0.268941 0.022867
0.878887 0.268941 0.020851
0.923154 0.268941 0.019469
0.952190 0.268941 0.018562
0.970688 0.268941 0.017986
0.982014 0.268941 0.017986
0.005500 0.324076 0.036715
0.017067 0.324916 0.036354
0.035566 0.326260 0.035776
0.064602 0.328370 0.034870
0.108869 0.331586 0.033487
0.173435 0.336278 0.031471
0.261791 0.342697 0.028712
0.372699 0.350756 0.025249
0.497762 0.377541 0.021344
0.622459 0.377541 0.017986
0.731059 0.377541 0.017986
0.817574 0.377541 0.017986
0.880797 0.377541 0.017986
0.924142 0.377541 0.017986
0.952574 0.377541 0.017986
0.970688 0.377541 0.017986
0.982014 0.377541 0.017986
0.014258 0.427838 0.023578
0.025825 0.428678 0.023217
0.044324 0.430022 0.022639
0.073361 0.432132 0.021732
0.117627 0.435348 0.020350
0.182194 0.440040 0.018334
0.268941 0.446520 0.017986
0.377541 0.454665 0.017986
0.500000 0.500000 0.017986
0.622459 0.500000 0.017986
0.732491 0.500573 0.016840
0.820846 0.501309 0.015369
0.885413 0.501846 0.014294
0.929679 0.502215 0.013557
0.958716 0.502457 0.013073
0.977214 0.502611 0.012765
0.988781 0.502707 0.012572
0.017986 0.531788 0.017986
0.029312 0.532638 0.017986
0.047426 0.533996 0.017986
0.075858 0.536129 0.017986
0.119203 0.539380 0.017986
0.182426 0.544121 0.017986
0.269307 0.550740 0.017694
0.380215 0.559704 0.015846
0.505278 0.569813 0.013764
0.630341 0.625612 0.011681
0.741249 0.626536 0.009834
0.829604 0.627271 0.008362
0.894171 0.627809 0.007287
0.938437 0.628177 0.006550
0.967474 0.628419 0.006066
0.985973 0.628573 0.005758
0.997540 0.628670 0.005566
0.020784 0.625091 0.015748
0.032351 0.626026 0.015556
0.050849 0.627521 0.015247
0.079886 0.629868 0.014764
0.124152 0.633446 0.014027
0.188719 0.638665 0.012951
0.277074 0.645807 0.011480
0.387982 0.654771 0.009633
0.513045 0.664880 0.007550
0.638108 0.674988 0.005467
0.749016 0.738242 0.003620
0.837371 0.738977 0.002149
0.901938 0.739515 0.001073
0.946204 0.739884 0.000336
0.975241 0.740125 0.000000
0.993740 0.740279 0.000000
1.000000 0.740376 0.000000
0.026971 0.700826 0.010798
0.038538 0.701761 0.010605
0.057037 0.703256 0.010297
0.086074 0.705603 0.009814
0.130340 0.709181 0.009077
0.194907 0.714400 0.008001
0.283262 0.721542 0.006530
0.394170 0.730506 0.004683
0.519233 0.740615 0.002600
0.644296 0.750724 0.000517
0.755204 0.759688 0.000000
0.843559 0.827968 0.000000
0.908126 0.828506 0.000000
0.952392 0.828874 0.000000
0.981429 0.829116 0.000000
0.999927 0.829270 0.000000
1.000000 0.829367 0.000000
0.031493 0.756170 0.007181
0.043060 0.757105 0.006988
0.061559 0.758601 0.006680
0.090595 0.760948 0.006196
0.134862 0.764526 0.005459
0.199428 0.769744 0.004384
0.287784 0.776886 0.002912
0.398692 0.785851 0.001065
0.523754 0.795959 0.000000
0.648817 0.806068 0.000000
0.759725 0.815033 0.000000
0.848081 0.822174 0.000000
0.912647 0.893537 0.000000
0.956914 0.893906 0.000000
0.985950 0.894148 0.000000
1.000000 0.894302 0.000000
1.000000 0.894398 0.000000
0.034593 0.794114 0.004701
0.046160 0.795049 0.004508
0.064659 0.796544 0.004200
0.093695 0.798891 0.003716
0.137962 0.802469 0.002979
0.202528 0.807688 0.001904
0.290884 0.814830 0.000432
0.401792 0.823794 0.000000
0.526854 0.833903 0.000000
0.651917 0.844012 0.000000
0.762825 0.852976 0.000000
0.851181 0.860118 0.000000
0.915747 0.865337 0.000000
0.960014 0.938491 0.000000
0.989050 0.938732 0.000000
1.000000 0.938886 0.000000
1.000000 0.938983 0.000000
0.036627 0.819003 0.003074
0.048193 0.819938 0.002881
0.066692 0.821433 0.002573
0.095729 0.823780 0.002090
0.139995 0.827358 0.001352
0.204562 0.832577 0.000277
0.292917 0.839719 0.000000
0.403825 0.848684 0.000000
0.528888 0.858792 0.000000
0.653951 0.868901 0.000000
0.764859 0.877865 0.000000
0.853214 0.885007 0.000000
0.917781 0.890226 0.000000
0.962047 0.893804 0.000000
0.991084 0.967978 0.000000
1.000000 0.968132 0.000000
1.000000 0.968228 0.000000
0.037922 0.834860 0.002038
0.049489 0.835795 0.001845
0.067988 0.837290 0.001537
0.097024 0.839637 0.001053
0.141291 0.843215 0.000316
0.205857 0.848434 0.000000
0.294213 0.855575 0.000000
0.405121 0.864540 0.000000
0.530183 0.874649 0.000000
0.655246 0.884757 0.000000
0.766154 0.893722 0.000000
0.854510 0.900864 0.000000
0.919076 0.906082 0.000000
0.963343 0.909660 0.000000
0.992379 0.986610 0.000000
1.000000 0.986764 0.000000
1.000000 0.986860 0.000000
0.038732 0.844774 0.001390
0.050299 0.845709 0.001197
0.068798 0.847205 0.000889
0.097834 0.849552 0.000405
0.142101 0.853130 0.000000
0.206667 0.858348 0.000000
0.295023 0.865490 0.000000
0.405931 0.874455 0.000000
0.530993 0.884563 0.000000
0.656056 0.894672 0.000000
0.766964 0.903637 0.000000
0.855320 0.910778 0.000000
0.919886 0.915997 0.000000
0.964153 0.919575 0.000000
0.993189 0.921922 0.000000
1.000000 0.998414 0.000000
1.000000 0.998510 0.000000
0.000000 0.017986 0.086492
0.000000 0.017986 0.086130
0.009932 0.017986 0.085553
0.038969 0.017986 0.084646
0.083235 0.017986 0.083264
0.147802 0.017986 0.081248
0.236157 0.017986 0.078489
0.347065 0.017986 0.075025
0.472128 0.017986 0.071120
0.597191 0.017986 0.067215
0.708099 0.017986 0.063752
0.796454 0.017986 0.060993
0.861021 0.017986 0.058977
0.905287 0.017986 0.057594
0.934324 0.017986 0.056688
0.952823 0.017986 0.056110
0.964389 0.017986 0.055749
0.000000 0.029312 0.085277
0.000000 0.029312 0.084915
0.010742 0.029312 0.084338
0.039779 0.029312 0.083431
0.084045 0.029312 0.082049
0.148612 0.029312 0.080033
0.236967 0.029312 0.077274
0.347875 0.029312 0.073810
0.472938 0.029312 0.069905
0.598001 0.029312 0.066000
0.708909 0.029312 0.062537
0.797264 0.029312 0.059778
0.861831 0.029312 0.057762
0.906097 0.029312 0.056379
0.935134 0.029312 0.055473
0.953633 0.029312 0.054895
0.965199 0.029312 0.054534
0.000000 0.047426 0.083333
0.000000 0.047426 0.082972
0.012038 0.047426 0.082395
0.041074 0.047426 0.081488
0.085341 0.047426 0.080106
0.149907 0.047426 0.078089
0.238263 0.047426 0.075330
0.349171 0.047426 0.071867
0.474234 0.047426 0.067962
0.599296 0.047426 0.064057
0.710204 0.047426 0.060593
0.798560 0.047426 0.057834
0.863126 0.047426 0.055818
0.907393 0.047426 0.054436
0.936429 0.047426 0.053529
0.954928 0.047426 0.052952
0.966495 0.047426 0.052591
0.000000 0.075858 0.080283
0.000000 0.075858 0.079922
0.014071 0.075858 0.079344
0.043108 0.075858 0.078438
0.087374 0.075858 0.077055
0.151941 0.075858 0.075039
0.240296 0.075858 0.072280
0.351204 0.075858 0.068817
0.476267 0.075858 0.064912
0.601330 0.075858 0.061006
0.712238 0.075858 0.057543
0.800593 0.075858 0.054784
0.865160 0.075858 0.052768
0.909426 0.075858 0.051386
0.938463 0.075858 0.050479
0.956962 0.075858 0.049901
0.968528 0.075858 0.049540
0.000000 0.106028 0.075633
0.000000 0.106868 0.075272
0.017171 0.108212 0.074694
0.046208 0.110322 0.073788
0.090474 0.113538 0.072405
0.155041 0.119203 0.070389
0.243396 0.119203 0.067630
0.354304 0.119203 0.064167
0.479367 0.119203 0.060262
0.604430 0.119203 0.056356
0.715338 0.119203 0.052893
0.803693 0.119203 0.050134
0.868260 0.119203 0.048118
0.912526 0.119203 0.046736
0.941563 0.119203 0.045829
0.960062 0.119203 0.045251
0.971628 0.119203 0.044890
0.000000 0.159598 0.068851
0.003194 0.160438 0.068489
0.021693 0.161782 0.067912
0.050730 0.163892 0.067005
0.094996 0.167108 0.065623
0.159563 0.171799 0.063607
0.247918 0.182426 0.060848
0.358826 0.182426 0.057384
0.483889 0.182426 0.053479
0.608952 0.182426 0.049574
0.719860 0.182426 0.046111
0.808215 0.182426 0.043352
0.872782 0.182426 0.041336
0.917048 0.182426 0.039953
0.946085 0.182426 0.039047
0.964583 0.182426 0.038469
0.976150 0.182426 0.038108
0.000000 0.232904 0.059569
0.009382 0.233744 0.059208
0.027880 0.235089 0.058630
0.056917 0.237198 0.057724
0.101184 0.240415 0.056341
0.165750 0.245106 0.054325
0.254105 0.251526 0.051566
0.365014 0.268941 0.048103
0.490076 0.268941 0.044198
0.615139 0.268941 0.040293
0.726047 0.268941 0.036829
0.814402 0.268941 0.034070
0.878969 0.268941 0.032054
0.923235 0.268941 0.030672
0.952272 0.268941 0.029765
0.970688 0.268941 0.029312
0.982014 0.268941 0.029312
0.005582 0.324922 0.047919
0.017149 0.325763 0.047557
0.035647 0.327107 0.046980
0.064684 0.329216 0.046073
0.108951 0.332433 0.044691
0.173517 0.337124 0.042675
0.261872 0.343544 0.039916
0.372781 0.351602 0.036452
0.497843 0.377541 0.032547
0.622459 0.377541 0.029312
0.731059 0.377541 0.029312
0.817574 0.377541 0.029312
0.880797 0.377541 0.029312
0.924142 0.377541 0.029312
0.952574 0.377541 0.029312
0.970688 0.377541 0.029312
0.982014 0.377541 0.029312
0.014340 0.428684 0.034781
0.025907 0.429525 0.034420
0.044406 0.430869 0.033842
0.073443 0.432978 0.032936
0.117709 0.436195 0.031553
0.182276 0.440886 0.029537
0.268941 0.447369 0.029312
0.377541 0.455514 0.029312
0.500000 0.500000 0.029312
0.622459 0.500000 0.029312
0.732573 0.500606 0.028101
0.820928 0.501341 0.026630
0.885494 0.501879 0.025554
0.929761 0.502248 0.024817
0.958797 0.502489 0.024334
0.977296 0.502643 0.024025
0.988863 0.502740 0.023833
0.017986 0.532638 0.029312
0.029312 0.533487 0.029312
0.047426 0.534846 0.029312
0.075858 0.536978 0.029312
0.119203 0.540229 0.029312
0.182426 0.544971 0.029312
0.269389 0.551618 0.028954
0.380297 0.560583 0.027107
0.505360 0.570692 0.025024
0.630423 0.625645 0.022942
0.741331 0.626568 0.021094
0.829686 0.627304 0.019623
0.894253 0.627842 0.018548
0.938519 0.628210 0.017810
0.967556 0.628452 0.017327
0.986055 0.628606 0.017019
0.997621 0.628702 0.016826
0.020866 0.625969 0.027009
0.032432 0.626904 0.026816
0.050931 0.628400 0.026508
0.079968 0.630747 0.026024
0.124234 0.634325 0.025287
0.188801 0.639543 0.024212
0.277156 0.646685 0.022741
0.388064 0.655650 0.020893
0.513127 0.665758 0.018811
0.638190 0.675867 0.016728
0.749098 0.738274 0.014881
0.837453 0.739010 0.013409
0.902020 0.739548 0.012334
0.946286 0.739916 0.011597
0.975323 0.740158 0.011113
0.993822 0.740312 0.010805
1.000000 0.740408 0.010613
0.027053 0.701704 0.022059
0.038620 0.702639 0.021866
0.057119 0.704135 0.021558
0.086155 0.706482 0.021074
0.130422 0.710060 0.020337
0.194988 0.715278 0.019262
0.283344 0.722420 0.017790
0.394252 0.731385 0.015943
0.519315 0.741493 0.013861
0.644377 0.751602 0.011778
0.755285 0.760567 0.009931
0.843641 0.828001 0.008459
0.908207 0.828539 0.007384
0.952474 0.828907 0.006647
0.981510 0.829149 0.006163
1.000000 0.829303 0.005855
1.000000 0.829399 0.005662
0.031575 0.757049 0.018441
0.043142 0.757984 0.018249
0.061640 0.759479 0.017941
0.090677 0.761826 0.017457
0.134943 0.765404 0.016720
0.199510 0.770623 0.015645
0.287865 0.777765 0.014173
0.398773 0.786729 0.012326
0.523836 0.796838 0.010243
0.648899 0.806946 0.008160
0.759807 0.815911 0.006313
0.848162 0.823053 0.004842
0.912729 0.893570 0.003767
0.956995 0.893938 0.003029
0.986032 0.894180 0.002546
1.000000 0.894334 0.002238
1.000000 0.894431 0.002045
0.034675 0.794992 0.015961
0.046242 0.795927 0.015769
0.064740 0.797423 0.015461
0.093777 0.799770 0.014977
0.138043 0.803348 0.014240
0.202610 0.808566 0.013165
0.290965 0.815708 0.011693
0.401873 0.824673 0.009846
0.526936 0.834781 0.007763
0.651999 0.844890 0.005680
0.762907 0.853855 0.003833
0.851262 0.860996 0.002362
0.915829 0.866215 0.001287
0.960095 0.938523 0.000549
0.989132 0.938765 0.000066
1.000000 0.938919 0.000000
1.000000 0.939015 0.000000
0.036708 0.819882 0.014335
0.048275 0.820817 0.014142
0.066774 0.822312 0.013834
0.095811 0.824659 0.013350
0.140077 0.828237 0.012613
0.204644 0.833456 0.011538
0.292999 0.840597 0.010066
0.403907 0.849562 0.008219
0.528970 0.859671 0.006136
0.654033 0.869779 0.004054
0.764941 0.878744 0.002207
0.853296 0.885886 0.000735
0.917863 0.891104 0.000000
0.962129 0.894682 0.000000
0.991166 0.968011 0.000000
1.000000 0.968165 0.000000
1.000000 0.968261 0.000000
0.038004 0.835738 0.013298
0.049571 0.836673 0.013106
0.068069 0.838168 0.012797
0.097106 0.840515 0.012314
0.141372 0.844093 0.011577
0.205939 0.849312 0.010501
0.294294 0.856454 0.009030
0.405202 0.865418 0.007183
0.530265 0.875527 0.005100
0.655328 0.885636 0.003017
0.766236 0.894600 0.001170
0.854591 0.901742 0.000000
0.919158 0.906961 0.000000
0.963424 0.910539 0.000000
0.992461 0.986643 0.000000
1.000000 0.986797 0.000000
1.000000 0.986893 0.000000
0.038814 0.845653 0.012650
0.050381 0.846588 0.012457
0.068879 0.848083 0.012149
0.097916 0.850430 0.011666
0.142182 0.854008 0.010929
0.206749 0.859227 0.009853
0.295104 0.866369 0.008382
0.406012 0.875333 0.006535
0.531075 0.885442 0.004452
0.656138 0.895551 0.002369
0.767046 0.904515 0.000522
0.855401 0.911657 0.000000
0.919968 0.916876 0.000000
0.964234 0.920454 0.000000
0.993271 0.922801 0.000000
1.000000 0.998447 0.000000
1.000000 0.998543 0.000000
0.000000 0.017986 0.104409
0.000000 0.017986 0.104048
0.010063 0.017986 0.103470
0.039100 0.017986 0.102564
0.083366 0.017986 0.101181
0.147933 0.017986 0.099165
0.236288 0.017986 0.096406
0.347196 0.017986 0.092943
0.472259 0.017986 0.089038
0.597322 0.017986 0.085132
0.708230 0.017986 0.081669
0.796585 0.017986 0.078910
0.861152 0.017986 0.076894
0.905418 0.017986 0.075512
0.934455 0.017986 0.074605
0.952953 0.017986 0.074027
0.964520 0.017986 0.073666
0.000000 0.029312 0.103194
0.000000 0.029312 0.102833
0.010873 0.029312 0.102255
0.039910 0.029312 0.101349
0.084176 0.029312 0.099966
0.148743 0.029312 0.097950
0.237098 0.029312 0.095191
0.348006 0.029312 0.091728
0.473069 0.029312 0.087823
0.598132 0.029312 0.083917
0.709040 0.029312 0.080454
0.797395 0.029312 0.077695
0.861962 0.029312 0.075679
0.906228 0.029312 0.074297
0.935265 0.029312 0.073390
0.953763 0.029312 0.072812
0.965330 0.029312 0.072451
0.000000 0.047426 0.101251
0.000000 0.047426 0.100890
0.012168 0.047426 0.100312
0.041205 0.047426 0.099405
0.085471 0.047426 0.098023
0.150038 0.047426 0.096007
0.238393 0.047426 0.093248
0.349301 0.047426 0.089785
0.474364 0.047426 0.085879
0.599427 0.047426 0.081974
0.710335 0.047426 0.078511
0.798690 0.047426 0.075752
0.863257 0.047426 0.073736
0.907523 0.047426 0.072354
0.936560 0.047426 0.071447
0.955059 0.047426 0.070869
0.966626 0.047426 0.070508
0.000000 0.075858 0.098201
0.000000 0.075858 0.097839
0.014202 0.075858 0.097262
0.043239 0.075858 0.096355
0.087505 0.075858 0.094973
0.152072 0.075858 0.092957
0.240427 0.075858 0.090198
0.351335 0.075858 0.086734
0.476398 0.075858 0.082829
0.601461 0.075858 0.078924
0.712369 0.075858 0.075461
0.800724 0.075858 0.072702
0.865291 0.075858 0.070686
0.909557 0.075858 0.069303
0.938594 0.075858 0.068397
0.957092 0.075858 0.067819
0.968659 0.075858 0.067458
0.000000 0.107382 0.093551
0.000000 0.108222 0.093189
0.017302 0.109566 0.092612
0.046339 0.111676 0.091705
0.090605 0.114892 0.090323
0.155172 0.119203 0.088307
0.243527 0.119203 0.085548
0.354435 0.119203 0.082084
0.479498 0.119203 0.078179
0.604561 0.119203 0.074274
0.715469 0.119203 0.070811
0.803824 0.119203 0.068052
0.868391 0.119203 0.066036
0.912657 0.119203 0.064653
0.941694 0.119203 0.063747
0.960192 0.119203 0.063169
0.971759 0.119203 0.062808
0.000000 0.160951 0.086768
0.003325 0.161792 0.086407
0.021824 0.163136 0.085829
0.050860 0.165245 0.084923
0.095127 0.168462 0.083540
0.159693 0.173153 0.081524
0.248049 0.182426 0.078765
0.358957 0.182426 0.075302
0.484019 0.182426 0.071397
0.609082 0.182426 0.067491
0.719990 0.182426 0.064028
0.808346 0.182426 0.061269
0.872912 0.182426 0.059253
0.917179 0.182426 0.057871
0.946215 0.182426 0.056964
0.964714 0.182426 0.056386
0.976281 0.182426 0.056025
0.000000 0.234258 0.077487
0.009513 0.235098 0.077125
0.028011 0.236442 0.076548
0.057048 0.238552 0.075641
0.101314 0.241768 0.074259
0.165881 0.246459 0.072243
0.254236 0.252879 0.069484
0.365144 0.268941 0.066020
0.490207 0.268941 0.062115
0.615270 0.268941 0.058210
0.726178 0.268941 0.054747
0.814533 0.268941 0.051988
0.879100 0.268941 0.049972
0.923366 0.268941 0.048589
0.952403 0.268941 0.047683
0.970688 0.268941 0.047426
0.982014 0.268941 0.047426
0.005713 0.326276 0.065836
0.017280 0.327116 0.065475
0.035778 0.328460 0.064897
0.064815 0.330570 0.063991
0.109081 0.333786 0.062608
0.173648 0.338478 0.060592
0.262003 0.344897 0.057833
0.372911 0.352956 0.054370
0.497974 0.377541 0.050465
0.622459 0.377541 0.047426
0.731059 0.377541 0.047426
0.817574 0.377541 0.047426
0.880797 0.377541 0.047426
0.924142 0.377541 0.047426
0.952574 0.377541 0.047426
0.970688 0.377541 0.047426
0.982014 0.377541 0.047426
0.014471 0.430038 0.052699
0.026038 0.430878 0.052337
0.044537 0.432222 0.051760
0.073573 0.434332 0.050853
0.117840 0.437548 0.049471
0.182406 0.442240 0.047455
0.268941 0.448728 0.047426
0.377541 0.456872 0.047426
0.500000 0.500000 0.047426
0.622459 0.500000 0.047426
0.732703 0.500658 0.046110
0.821059 0.501394 0.044639
0.885625 0.501931 0.043563
0.929891 0.502300 0.042826
0.958928 0.502542 0.042343
0.977427 0.502696 0.042034
0.988994 0.502792 0.041842
0.017986 0.533996 0.047426
0.029312 0.534846 0.047426
0.047426 0.536204 0.047426
0.075858 0.538337 0.047426
0.119203 0.541588 0.047426
0.182426 0.546329 0.047426
0.269520 0.553023 0.046963
0.380428 0.561988 0.045116
0.505491 0.572097 0.043033
0.630554 0.625697 0.040951
0.741462 0.626621 0.039103
0.829817 0.627356 0.037632
0.894384 0.627894 0.036557
0.938650 0.628263 0.035820
0.967687 0.628504 0.035336
0.986185 0.628658 0.035028
0.997752 0.628755 0.034835
0.020996 0.627374 0.045018
0.032563 0.628309 0.044825
0.051062 0.629804 0.044517
0.080099 0.632151 0.044033
0.124365 0.635729 0.043296
0.188932 0.640948 0.042221
0.277287 0.648090 0.040750
0.388195 0.657055 0.038902
0.513258 0.667163 0.036820
0.638321 0.677272 0.034737
0.749229 0.738327 0.032890
0.837584 0.739062 0.031418
0.902151 0.739600 0.030343
0.946417 0.739969 0.029606
0.975454 0.740210 0.029122
0.993952 0.740364 0.028814
1.000000 0.740461 0.028622
0.027184 0.703109 0.040068
0.038751 0.704044 0.039875
0.057249 0.705540 0.039567
0.086286 0.707887 0.039083
0.130553 0.711465 0.038346
0.195119 0.716683 0.037271
0.283474 0.723825 0.035799
0.394383 0.732790 0.033952
0.519445 0.742898 0.031870
0.644508 0.753007 0.029787
0.755416 0.761972 0.027940
0.843771 0.828053 0.026468
0.908338 0.828591 0.025393
0.952604 0.828960 0.024656
0.981641 0.829201 0.024172
1.000000 0.829355 0.023864
1.000000 0.829452 0.023672
0.031706 0.758454 0.036450
0.043272 0.759389 0.036258
0.061771 0.760884 0.035950
0.090808 0.763231 0.035466
0.135074 0.766809 0.034729
0.199641 0.772028 0.033654
0.287996 0.779169 0.032182
0.398904 0.788134 0.030335
0.523967 0.798243 0.028252
0.649030 0.808351 0.026169
0.759938 0.817316 0.024322
0.848293 0.824458 0.022851
0.912860 0.893622 0.021776
0.957126 0.893991 0.021038
0.986163 0.894233 0.020555
1.000000 0.894387 0.020247
1.000000 0.894483 0.020054
0.034806 0.796397 0.033970
0.046372 0.797332 0.033778
0.064871 0.798828 0.033470
0.093908 0.801175 0.032986
0.138174 0.804753 0.032249
0.202741 0.809971 0.031174
0.291096 0.817113 0.029702
0.402004 0.826078 0.027855
0.527067 0.836186 0.025772
0.652130 0.846295 0.023689
0.763038 0.855260 0.021842
0.851393 0.862401 0.020371
0.915960 0.867620 0.019296
0.960226 0.938576 0.018558
0.989263 0.938817 0.018075
1.000000 0.938971 0.017767
1.000000 0.939068 0.017574
0.036839 0.821287 0.032344
0.048406 0.822222 0.032151
0.066905 0.823717 0.031843
0.095941 0.826064 0.031359
0.140208 0.829642 0.030622
0.204774 0.834861 0.029547
0.293130 0.842002 0.028075
0.404038 0.850967 0.026228
0.529101 0.861076 0.024145
0.654163 0.871184 0.022063
0.765071 0.880149 0.020216
0.853427 0.887291 0.018744
0.917993 0.892509 0.017669
0.962260 0.896087 0.016932
0.991296 0.968063 0.016448
1.000000 0.968217 0.016140
1.000000 0.968313 0.015947
0.038135 0.837143 0.031307
0.049701 0.838078 0.031115
0.068200 0.839573 0.030806
0.097237 0.841920 0.030323
0.141503 0.845498 0.029586
0.206070 0.850717 0.028510
0.294425 0.857859 0.027039
0.405333 0.866823 0.025192
0.530396 0.876932 0.023109
0.655459 0.887041 0.021026
0.766367 0.896005 0.019179
0.854722 0.903147 0.017708
0.919289 0.908366 0.016632
0.963555 0.911944 0.015895
0.992592 0.986695 0.015412
1.000000 0.986849 0.015104
1.000000 0.986945 0.014911
0.038945 0.847058 0.030659
0.050511 0.847993 0.030466
0.069010 0.849488 0.030158
0.098047 0.851835 0.029675
0.142313 0.855413 0.028938
0.206880 0.860632 0.027862
0.295235 0.867774 0.026391
0.406143 0.876738 0.024544
0.531206 0.886847 0.022461
0.656269 0.896955 0.020378
0.767177 0.905920 0.018531
0.855532 0.913062 0.017060
0.920099 0.918281 0.015984
0.964365 0.921859 0.015247
0.993402 0.924206 0.014764
1.000000 0.998499 0.014456
1.000000 0.998595 0.014263
0.000000 0.017986 0.132533
0.000000 0.017986 0.132172
0.010268 0.017986 0.131595
0.039305 0.017986 0.130688
0.083571 0.017986 0.129306
0.148138 0.017986 0.127290
0.236493 0.017986 0.124531
0.347401 0.017986 0.121067
0.472464 0.017986 0.117162
0.597527 0.017986 0.113257
0.708435 0.017986 0.109794
0.796790 0.017986 0.107035
0.861357 0.017986 0.105018
0.905623 0.017986 0.103636
0.934660 0.017986 0.102729
0.953159 0.017986 0.102152
0.964725 0.017986 0.101791
0.000000 0.029312 0.131318
