video_pipeline/assets/cinematic.cube
# Cinematic Warm LUT — auto-generated for A/B testing pipeline
TITLE "Cinematic Warm"
LUT_3D_SIZE 9
0.000000 0.017986 0.075288
0.009850 0.017986 0.074349
0.083153 0.017986 0.072060
0.236075 0.017986 0.067285
0.472046 0.017986 0.059917
0.708017 0.017986 0.052548
0.860939 0.017986 0.047773
0.934242 0.017986 0.045484
0.964308 0.017986 0.044545
0.000000 0.047426 0.072130
0.011956 0.047426 0.071191
0.085259 0.047426 0.068902
0.238181 0.047426 0.064127
0.474152 0.047426 0.056759
0.710123 0.047426 0.049390
0.863045 0.047426 0.044615
0.936348 0.047426 0.042326
0.966413 0.047426 0.041387
0.000000 0.105182 0.064430
0.017089 0.107366 0.063491
0.090392 0.112692 0.061202
0.243314 0.119203 0.056427
0.479285 0.119203 0.049058
0.715256 0.119203 0.041690
0.868178 0.119203 0.036915
0.941481 0.119203 0.034626
0.971547 0.119203 0.033687
0.000000 0.232058 0.048366
0.027799 0.234242 0.047427
0.101102 0.239568 0.045138
0.254024 0.250679 0.040363
0.489995 0.268941 0.032994
0.725965 0.268941 0.025626
0.878887 0.268941 0.020851
0.952190 0.268941 0.018562
0.982014 0.268941 0.017986
0.014258 0.427838 0.023578
0.044324 0.430022 0.022639
0.117627 0.435348 0.020350
0.268941 0.446520 0.017986
0.500000 0.500000 0.017986
0.732491 0.500573 0.016840
0.885413 0.501846 0.014294
0.958716 0.502457 0.013073
0.988781 0.502707 0.012572
0.020784 0.625091 0.015748
0.050849 0.627521 0.015247
0.124152 0.633446 0.014027
0.277074 0.645807 0.011480
0.513045 0.664880 0.007550
0.749016 0.738242 0.003620
0.901938 0.739515 0.001073
0.975241 0.740125 0.000000
1.000000 0.740376 0.000000
0.031493 0.756170 0.007181
0.061559 0.758601 0.006680
0.134862 0.764526 0.005459
0.287784 0.776886 0.002912
0.523754 0.795959 0.000000
0.759725 0.815033 0.000000
0.912647 0.893537 0.000000
0.985950 0.894148 0.000000
1.000000 0.894398 0.000000
0.036627 0.819003 0.003074
0.066692 0.821433 0.002573
0.139995 0.827358 0.001352
0.292917 0.839719 0.000000
0.528888 0.858792 0.000000
0.764859 0.877865 0.000000
0.917781 0.890226 0.000000
0.991084 0.967978 0.000000
1.000000 0.968228 0.000000
0.038732 0.844774 0.001390
0.068798 0.847205 0.000889
0.142101 0.853130 0.000000
0.295023 0.865490 0.000000
0.530993 0.884563 0.000000
0.766964 0.903637 0.000000
0.919886 0.915997 0.000000
0.993189 0.921922 0.000000
1.000000 0.998510 0.000000
0.000000 0.017986 0.104409
0.010063 0.017986 0.103470
0.083366 0.017986 0.101181
0.236288 0.017986 0.096406
0.472259 0.017986 0.089038
0.708230 0.017986 0.081669
0.861152 0.017986 0.076894
0.934455 0.017986 0.074605
0.964520 0.017986 0.073666
0.000000 0.047426 0.101251
0.012168 0.047426 0.100312
0.085471 0.047426 0.098023
0.238393 0.047426 0.093248
0.474364 0.047426 0.085879
0.710335 0.047426 0.078511
0.863257 0.047426 0.073736
0.936560 0.047426 0.071447
0.966626 0.047426 0.070508
0.000000 0.107382 0.093551
0.017302 0.109566 0.092612
0.090605 0.114892 0.090323
0.243527 0.119203 0.085548
0.479498 0.119203 0.078179
0.715469 0.119203 0.070811
0.868391 0.119203 0.066036
0.941694 0.119203 0.063747
0.971759 0.119203 0.062808
0.000000 0.234258 0.077487
0.028011 0.236442 0.076548
0.101314 0.241768 0.074259
0.254236 0.252879 0.069484
0.490207 0.268941 0.062115
0.726178 0.268941 0.054747
0.879100 0.268941 0.049972
0.952403 0.268941 0.047683
0.982014 0.268941 0.047426
0.014471 0.430038 0.052699
0.044537 0.432222 0.051760
0.117840 0.437548 0.049471
0.268941 0.448728 0.047426
0.500000 0.500000 0.047426
0.732703 0.500658 0.046110
0.885625 0.501931 0.043563
0.958928 0.502542 0.042343
0.988994 0.502792 0.041842
0.020996 0.627374 0.045018
0.051062 0.629804 0.044517
0.124365 0.635729 0.043296
0.277287 0.648090 0.040750
0.513258 0.667163 0.036820
0.749229 0.738327 0.032890
0.902151 0.739600 0.030343
0.975454 0.740210 0.029122
1.000000 0.740461 0.028622
0.031706 0.758454 0.036450
0.061771 0.760884 0.035950
0.135074 0.766809 0.034729
0.287996 0.779169 0.032182
0.523967 0.798243 0.028252
0.759938 0.817316 0.024322
0.912860 0.893622 0.021776
0.986163 0.894233 0.020555
1.000000 0.894483 0.020054
0.036839 0.821287 0.032344
0.066905 0.823717 0.031843
0.140208 0.829642 0.030622
0.293130 0.842002 0.028075
0.529101 0.861076 0.024145
0.765071 0.880149 0.020216
0.917993 0.892509 0.017669
0.991296 0.968063 0.016448
1.000000 0.968313 0.015947
0.038945 0.847058 0.030659
0.069010 0.849488 0.030158
0.142313 0.855413 0.028938
0.295235 0.867774 0.026391
0.531206 0.886847 0.022461
0.767177 0.905920 0.018531
0.920099 0.918281 0.015984
0.993402 0.924206 0.014764
1.000000 0.998595 0.014263
0.000000 0.017986 0.175409
0.010581 0.017986 0.174470
0.083884 0.017986 0.172181
0.236806 0.017986 0.167406
0.472777 0.017986 0.160037
0.708748 0.017986 0.152669
0.861670 0.017986 0.147894
0.934973 0.017986 0.145605
0.965038 0.017986 0.144666
0.000000 0.047426 0.172251
0.012687 0.047426 0.171312
0.085990 0.047426 0.169023
0.238912 0.047426 0.164248
0.474883 0.047426 0.156879
0.710853 0.047426 0.149511
0.863775 0.047426 0.144735
0.937078 0.047426 0.142447
0.967144 0.047426 0.141508
0.000000 0.119203 0.164550
0.017820 0.119203 0.163611
0.091123 0.119203 0.161322
0.244045 0.119203 0.156547
0.480016 0.119203 0.149179
0.715987 0.119203 0.141810
0.868909 0.119203 0.137035
0.942212 0.119203 0.134746
0.972277 0.119203 0.133807
0.000000 0.239621 0.148486
0.028529 0.241806 0.147548
0.101833 0.247132 0.145259
0.254754 0.258243 0.140483
0.490725 0.268941 0.133115
0.726696 0.268941 0.125746
0.879618 0.268941 0.120971
0.952574 0.268941 0.119203
0.982014 0.268941 0.119203
0.014989 0.435402 0.123698
0.045055 0.437586 0.122760
0.118358 0.442912 0.120471
0.268941 0.454111 0.119203
0.500000 0.500000 0.119203
0.733222 0.500865 0.117473
0.886143 0.502139 0.114926
0.959446 0.502749 0.113705
0.989512 0.502999 0.113204
0.021515 0.632942 0.116380
0.051580 0.635372 0.115880
0.124883 0.641297 0.114659
0.277805 0.653657 0.112112
0.513776 0.672730 0.108182
0.749747 0.738534 0.104252
0.902669 0.739807 0.101706
0.975972 0.740418 0.100485
1.000000 0.740668 0.099984
0.032224 0.764021 0.107813
0.062289 0.766451 0.107312
0.135592 0.772376 0.106091
0.288514 0.784737 0.103545
0.524485 0.803810 0.099615
0.760456 0.822883 0.095685
0.913378 0.893829 0.093138
0.986681 0.894440 0.091917
1.000000 0.894690 0.091417
0.037357 0.826854 0.103706
0.067423 0.829284 0.103205
0.140726 0.835209 0.101985
0.293648 0.847570 0.099438
0.529619 0.866643 0.095508
0.765590 0.885716 0.091578
0.918512 0.898077 0.089031
0.991815 0.968270 0.087811
1.000000 0.968521 0.087310
0.039463 0.852625 0.102022
0.069528 0.855055 0.101521
0.142831 0.860980 0.100300
0.295753 0.873341 0.097753
0.531724 0.892414 0.093824
0.767695 0.911487 0.089894
0.920617 0.923848 0.087347
0.993920 0.929773 0.086126
1.000000 0.998803 0.085625
0.000000 0.017986 0.323526
0.011662 0.017986 0.322587
0.084965 0.017986 0.320298
0.237887 0.017986 0.315523
0.473858 0.017986 0.308154
0.709829 0.017986 0.300786
0.862751 0.017986 0.296011
0.936054 0.017986 0.293722
0.966120 0.017986 0.292783
0.000000 0.047426 0.320367
0.013768 0.047426 0.319429
0.087071 0.047426 0.317140
0.239993 0.047426 0.312364
0.475964 0.047426 0.304996
0.711935 0.047426 0.297627
0.864856 0.047426 0.292852
0.938160 0.047426 0.290563
0.968225 0.047426 0.289625
0.000000 0.119203 0.312667
0.018901 0.119203 0.311728
0.092204 0.119203 0.309439
0.245126 0.119203 0.304664
0.481097 0.119203 0.297296
0.717068 0.119203 0.289927
0.869990 0.119203 0.285152
0.943293 0.119203 0.282863
0.973359 0.119203 0.281924
0.000000 0.268941 0.296603
0.029611 0.268941 0.295664
0.102914 0.268941 0.293375
0.255836 0.268941 0.288600
0.491806 0.268941 0.281232
0.727777 0.268941 0.273863
0.880699 0.268941 0.269088
0.952574 0.268941 0.268941
0.982014 0.268941 0.268941
0.016070 0.446591 0.271815
0.046136 0.448776 0.270876
0.119203 0.454111 0.268941
0.268941 0.465341 0.268941
0.500000 0.500000 0.268941
0.734303 0.501298 0.266346
0.887225 0.502571 0.263799
0.960528 0.503181 0.262579
0.990593 0.503432 0.262078
0.022596 0.644556 0.265254
0.052661 0.646986 0.264753
0.125964 0.652911 0.263532
0.278886 0.665271 0.260986
0.514857 0.684345 0.257056
0.750828 0.738966 0.253126
0.903750 0.740240 0.250579
0.977053 0.740850 0.249358
1.000000 0.741100 0.248858
0.033305 0.775635 0.256686
0.063371 0.778065 0.256186
0.136674 0.783990 0.254965
0.289595 0.796351 0.252418
0.525566 0.815424 0.248488
0.761537 0.834497 0.244558
0.914459 0.894262 0.242012
0.987762 0.894872 0.240791
1.000000 0.895123 0.240290
0.038438 0.838468 0.252580
0.068504 0.840898 0.252079
0.141807 0.846823 0.250858
0.294729 0.859184 0.248311
0.530700 0.878257 0.244382
0.766671 0.897330 0.240452
0.919593 0.909691 0.237905
0.992896 0.968703 0.236684
1.000000 0.968953 0.236183
0.040544 0.864239 0.250895
0.070610 0.866669 0.250394
0.143913 0.872594 0.249174
0.296834 0.884955 0.246627
0.532805 0.904028 0.242697
0.768776 0.923102 0.238767
0.921698 0.935462 0.236221
0.995001 0.941387 0.235000
1.000000 0.999235 0.234499
0.000000 0.017986 0.552082
0.013331 0.017986 0.551143
0.086634 0.017986 0.548854
0.239555 0.017986 0.544079
0.475526 0.017986 0.536710
0.711497 0.017986 0.529342
0.864419 0.017986 0.524567
0.937722 0.017986 0.522278
0.967788 0.017986 0.521339
0.000000 0.047426 0.548924
0.015436 0.047426 0.547985
0.088739 0.047426 0.545696
0.241661 0.047426 0.540921
0.477632 0.047426 0.533552
0.713603 0.047426 0.526184
0.866525 0.047426 0.521409
0.939828 0.047426 0.519120
0.969893 0.047426 0.518181
0.000000 0.119203 0.541223
0.020570 0.119203 0.540284
0.093873 0.119203 0.537996
0.246795 0.119203 0.533220
0.482765 0.119203 0.525852
0.718736 0.119203 0.518483
0.871658 0.119203 0.513708
0.944961 0.119203 0.511419
0.975027 0.119203 0.510480
0.001213 0.268941 0.525159
0.031279 0.268941 0.524221
0.104582 0.268941 0.521932
0.257504 0.268941 0.517156
0.493475 0.268941 0.509788
0.729446 0.268941 0.502420
0.880797 0.268941 0.500000
0.952574 0.268941 0.500000
0.982014 0.268941 0.500000
0.017739 0.500000 0.500371
0.047426 0.500000 0.500000
0.119203 0.500000 0.500000
0.268941 0.500000 0.500000
0.500000 0.500000 0.500000
0.735971 0.501965 0.496070
0.888893 0.503238 0.493523
0.962196 0.503849 0.492303
0.992261 0.504099 0.491802
0.024264 0.662477 0.494978
0.054329 0.664908 0.494477
0.127632 0.670833 0.493256
0.280554 0.683193 0.490710
0.516525 0.702266 0.486780
0.752496 0.739634 0.482850
0.905418 0.740907 0.480303
0.978721 0.741517 0.479082
1.000000 0.741768 0.478582
0.034973 0.793557 0.486410
0.065039 0.795987 0.485910
0.138342 0.801912 0.484689
0.291264 0.814273 0.482142
0.527235 0.833346 0.478212
0.763205 0.852419 0.474282
0.916127 0.894929 0.471736
0.989430 0.895540 0.470515
1.000000 0.895790 0.470014
0.040107 0.856390 0.482304
0.070172 0.858820 0.481803
0.143475 0.864745 0.480582
0.296397 0.877105 0.478035
0.532368 0.896179 0.474106
0.768339 0.915252 0.470176
0.921261 0.927612 0.467629
0.994564 0.969370 0.466408
1.000000 0.969620 0.465907
0.042212 0.882161 0.480619
0.072278 0.884591 0.480118
0.145581 0.890516 0.478898
0.298503 0.902877 0.476351
0.534474 0.921950 0.472421
0.770445 0.941023 0.468491
0.923366 0.953384 0.465945
0.996669 0.959309 0.464724
1.000000 0.999902 0.464223
0.000000 0.017986 0.780638
0.014999 0.017986 0.779699
0.088302 0.017986 0.777410
0.241224 0.017986 0.772635
0.477195 0.017986 0.765267
0.713166 0.017986 0.757898
0.866087 0.017986 0.753123
0.939390 0.017986 0.750834
0.969456 0.017986 0.749895
0.000000 0.047426 0.777480
0.017104 0.047426 0.776541
0.090407 0.047426 0.774252
0.243329 0.047426 0.769477
0.479300 0.047426 0.762108
0.715271 0.047426 0.754740
0.868193 0.047426 0.749965
0.941496 0.047426 0.747676
0.971562 0.047426 0.746737
0.000000 0.119203 0.769780
0.022238 0.119203 0.768841
0.095541 0.119203 0.766552
0.248463 0.119203 0.761777
0.484434 0.119203 0.754408
0.720405 0.119203 0.747040
0.873326 0.119203 0.742265
0.946629 0.119203 0.739976
0.976695 0.119203 0.739037
0.002882 0.268941 0.753716
0.032947 0.268941 0.752777
0.106250 0.268941 0.750488
0.259172 0.268941 0.745713
0.495143 0.268941 0.738344
0.731059 0.268941 0.731059
0.880797 0.268941 0.731059
0.952574 0.268941 0.731059
0.982014 0.268941 0.731059
0.017986 0.500000 0.731059
0.047426 0.500000 0.731059
0.119203 0.500000 0.731059
0.268941 0.500000 0.731059
0.501668 0.500667 0.729724
0.737639 0.502632 0.725794
0.890561 0.503906 0.723247
0.963864 0.504516 0.722027
0.993930 0.504766 0.721526
0.025932 0.680399 0.724702
0.055998 0.682829 0.724201
0.129301 0.688754 0.722980
0.282223 0.701115 0.720434
0.518194 0.720188 0.716504
0.754164 0.740301 0.712574
0.907086 0.741574 0.710027
0.980389 0.742185 0.708806
1.000000 0.742435 0.708306
0.036641 0.811478 0.716134
0.066707 0.813909 0.715634
0.140010 0.819834 0.714413
0.292932 0.832194 0.711866
0.528903 0.851267 0.707936
0.764874 0.870341 0.704006
0.917796 0.895597 0.701460
0.991099 0.896207 0.700239
1.000000 0.896457 0.699738
0.041775 0.874311 0.712028
0.071840 0.876742 0.711527
0.145144 0.882667 0.710306
0.298065 0.895027 0.707759
0.534036 0.914100 0.703830
0.770007 0.933174 0.699900
0.922929 0.945534 0.697353
0.996232 0.970037 0.696132
1.000000 0.970288 0.695631
0.043880 0.900083 0.710343
0.073946 0.902513 0.709842
0.147249 0.908438 0.708622
0.300171 0.920798 0.706075
0.536142 0.939871 0.702145
0.772113 0.958945 0.698215
0.925035 0.971305 0.695668
0.998338 0.977230 0.694448
1.000000 1.000000 0.693947
0.000000 0.017986 0.928755
0.016080 0.017986 0.927816
0.089383 0.017986 0.925527
0.242305 0.017986 0.920752
0.478276 0.017986 0.913383
0.714247 0.017986 0.906015
0.867169 0.017986 0.901240
0.940472 0.017986 0.898951
0.970537 0.017986 0.898012
0.000000 0.047426 0.925597
0.018185 0.047426 0.924658
0.091488 0.047426 0.922369
0.244410 0.047426 0.917594
0.480381 0.047426 0.910225
0.716352 0.047426 0.902857
0.869274 0.047426 0.898082
0.942577 0.047426 0.895793
0.972643 0.047426 0.894854
0.000000 0.119203 0.917896
0.023319 0.119203 0.916958
0.096622 0.119203 0.914669
0.249544 0.119203 0.909893
0.485515 0.119203 0.902525
0.721486 0.119203 0.895156
0.874408 0.119203 0.890381
0.947711 0.119203 0.888092
0.977776 0.119203 0.887154
0.003963 0.268941 0.901832
0.034028 0.268941 0.900894
0.107331 0.268941 0.898605
0.260253 0.268941 0.893829
0.496224 0.268941 0.886461
0.731059 0.268941 0.880797
0.880797 0.268941 0.880797
0.952574 0.268941 0.880797
0.982014 0.268941 0.880797
0.017986 0.500000 0.880797
0.047426 0.500000 0.880797
0.119203 0.500000 0.880797
0.268941 0.500000 0.880797
0.502749 0.501100 0.878598
0.738720 0.503065 0.874668
0.891642 0.504338 0.872121
0.964945 0.504948 0.870900
0.995011 0.505199 0.870400
0.027013 0.734669 0.873575
0.057079 0.734920 0.873075
0.130382 0.735530 0.871854
0.283304 0.736804 0.869307
0.519275 0.738768 0.865377
0.755246 0.740733 0.861448
0.908167 0.742007 0.858901
0.981471 0.742617 0.857680
1.000000 0.742867 0.857179
0.037723 0.823093 0.865008
0.067788 0.825523 0.864507
0.141091 0.831448 0.863287
0.294013 0.843808 0.860740
0.529984 0.862882 0.856810
0.765955 0.881955 0.852880
0.918877 0.896029 0.850333
0.992180 0.896639 0.849113
1.000000 0.896890 0.848612
0.042856 0.885926 0.860901
0.072922 0.888356 0.860400
0.146225 0.894281 0.859180
0.299147 0.906641 0.856633
0.535117 0.925714 0.852703
0.771088 0.944788 0.848773
0.924010 0.957148 0.846227
0.997313 0.970470 0.845006
1.000000 0.970720 0.844505
0.044962 0.911697 0.859217
0.075027 0.914127 0.858716
0.148330 0.920052 0.857495
0.301252 0.932412 0.854949
0.537223 0.951486 0.851019
0.773194 0.970559 0.847089
0.926116 0.982919 0.844542
0.999419 0.988844 0.843321
1.000000 1.000000 0.842821
0.000000 0.017986 0.999755
0.016598 0.017986 0.998816
0.089901 0.017986 0.996527
0.242823 0.017986 0.991752
0.478794 0.017986 0.984383
0.714765 0.017986 0.977015
0.867687 0.017986 0.972240
0.940990 0.017986 0.969951
0.971055 0.017986 0.969012
0.000000 0.047426 0.996596
0.018704 0.047426 0.995657
0.092007 0.047426 0.993369
0.244929 0.047426 0.988593
0.480899 0.047426 0.981225
0.716870 0.047426 0.973856
0.869792 0.047426 0.969081
0.943095 0.047426 0.966792
0.973161 0.047426 0.965853
0.000000 0.119203 0.988896
0.023837 0.119203 0.987957
0.097140 0.119203 0.985668
0.250062 0.119203 0.980893
0.486033 0.119203 0.973525
0.722004 0.119203 0.966156
0.874926 0.119203 0.961381
0.948229 0.119203 0.959092
0.978294 0.119203 0.958153
0.004481 0.268941 0.972832
0.034546 0.268941 0.971893
0.107849 0.268941 0.969604
0.260771 0.268941 0.964829
0.496742 0.268941 0.957461
0.731059 0.268941 0.952574
0.880797 0.268941 0.952574
0.952574 0.268941 0.952574
0.982014 0.268941 0.952574
0.017986 0.500000 0.952574
0.047426 0.500000 0.952574
0.119203 0.500000 0.952574
0.268941 0.500000 0.952574
0.503268 0.501307 0.949960
0.739238 0.503272 0.946030
0.892160 0.504545 0.943483
0.965463 0.505156 0.942263
0.995529 0.505406 0.941762
0.027531 0.734877 0.944938
0.057597 0.735127 0.944437
0.130900 0.735737 0.943216
0.283822 0.737011 0.940670
0.519793 0.738976 0.936740
0.755764 0.740941 0.932810
0.908686 0.742214 0.930263
0.981989 0.742824 0.929042
1.000000 0.743075 0.928542
0.038241 0.888899 0.936370
0.068306 0.889149 0.935870
0.141609 0.889760 0.934649
0.294531 0.891033 0.932102
0.530502 0.892998 0.928172
0.766473 0.894963 0.924243
0.919395 0.896236 0.921696
0.992698 0.896847 0.920475
1.000000 0.897097 0.919974
0.043374 0.891493 0.932264
0.073440 0.893923 0.931763
0.146743 0.899848 0.930542
0.299665 0.912208 0.927995
0.535636 0.931282 0.924066
0.771607 0.950355 0.920136
0.924529 0.962716 0.917589
0.997832 0.970677 0.916368
1.000000 0.970927 0.915867
0.045480 0.917264 0.930579
0.075545 0.919694 0.930079
0.148848 0.925619 0.928858
0.301770 0.937980 0.926311
0.537741 0.957053 0.922381
0.773712 0.976126 0.918451
0.926634 0.988487 0.915905
0.999937 0.994412 0.914684
1.000000 1.000000 0.914183
0.000000 0.017986 1.000000
0.016811 0.017986 1.000000
0.090114 0.017986 1.000000
0.243036 0.017986 1.000000
0.479007 0.017986 1.000000
0.714977 0.017986 1.000000
0.867899 0.017986 1.000000
0.941202 0.017986 0.999071
0.971268 0.017986 0.998133
0.000000 0.047426 1.000000
0.018916 0.047426 1.000000
0.092219 0.047426 1.000000
0.245141 0.047426 1.000000
0.481112 0.047426 1.000000
0.717083 0.047426 1.000000
0.870005 0.047426 0.998202
0.943308 0.047426 0.995913
0.973373 0.047426 0.994974
0.000000 0.119203 1.000000
0.024050 0.119203 1.000000
0.097353 0.119203 1.000000
0.250275 0.119203 1.000000
0.486246 0.119203 1.000000
0.722216 0.119203 0.995277
0.875138 0.119203 0.990502
0.948441 0.119203 0.988213
0.978507 0.119203 0.987274
0.004693 0.268941 1.000000
0.034759 0.268941 1.000000
0.108062 0.268941 0.998725
0.260984 0.268941 0.993950
0.496955 0.268941 0.986582
0.731059 0.268941 0.982014
0.880797 0.268941 0.982014
0.952574 0.268941 0.982014
0.982014 0.268941 0.982014
0.017986 0.500000 0.982014
0.047426 0.500000 0.982014
0.119203 0.500000 0.982014
0.268941 0.500000 0.982014
0.503480 0.501392 0.979230
0.739451 0.503357 0.975300
0.892373 0.504630 0.972753
0.965676 0.505241 0.971532
0.995742 0.505491 0.971032
0.027744 0.734962 0.974208
0.057810 0.735212 0.973707
0.131113 0.735822 0.972486
0.284035 0.737096 0.969939
0.520005 0.739061 0.966009
0.755976 0.741026 0.962080
0.908898 0.742299 0.959533
0.982201 0.742909 0.958312
1.000000 0.743160 0.957811
0.038453 0.888984 0.965640
0.068519 0.889234 0.965139
0.141822 0.889845 0.963919
0.294744 0.891118 0.961372
0.530715 0.893083 0.957442
0.766686 0.895048 0.953512
0.919608 0.896321 0.950965
0.992911 0.896932 0.949745
1.000000 0.897182 0.949244
0.043587 0.893776 0.961533
0.073652 0.896206 0.961033
0.146955 0.902131 0.959812
0.299877 0.914492 0.957265
0.535848 0.933565 0.953335
0.771819 0.952638 0.949405
0.924741 0.964999 0.946859
0.998044 0.970762 0.945638
1.000000 0.971012 0.945137
0.045692 0.919547 0.959849
0.075758 0.921978 0.959348
0.149061 0.927903 0.958127
0.301983 0.940263 0.955581
0.537954 0.959336 0.951651
0.773925 0.978410 0.947721
0.926847 0.990770 0.945174
1.000000 0.996695 0.943953
1.000000 1.000000 0.943453
