video_pipeline/assets/cinematic.cube
# Cinematic Warm LUT — auto-generated for A/B testing pipeline
TITLE "Cinematic Warm"
LUT_3D_SIZE 5
0.000000 0.017986 0.075288
0.083153 0.017986 0.072060
0.472046 0.017986 0.059917
0.860939 0.017986 0.047773
0.964308 0.017986 0.044545
0.000000 0.105182 0.064430
0.090392 0.112692 0.061202
0.479285 0.119203 0.049058
0.868178 0.119203 0.036915
0.971547 0.119203 0.033687
0.014258 0.427838 0.023578
0.117627 0.435348 0.020350
0.500000 0.500000 0.017986
0.885413 0.501846 0.014294
0.988781 0.502707 0.012572
0.031493 0.756170 0.007181
0.134862 0.764526 0.005459
0.523754 0.795959 0.000000
0.912647 0.893537 0.000000
1.000000 0.894398 0.000000
0.038732 0.844774 0.001390
0.142101 0.853130 0.000000
0.530993 0.884563 0.000000
0.919886 0.915997 0.000000
1.000000 0.998510 0.000000
0.000000 0.017986 0.175409
0.083884 0.017986 0.172181
0.472777 0.017986 0.160037
0.861670 0.017986 0.147894
0.965038 0.017986 0.144666
0.000000 0.119203 0.164550
0.091123 0.119203 0.161322
0.480016 0.119203 0.149179
0.868909 0.119203 0.137035
0.972277 0.119203 0.133807
0.014989 0.435402 0.123698
0.118358 0.442912 0.120471
0.500000 0.500000 0.119203
0.886143 0.502139 0.114926
0.989512 0.502999 0.113204
0.032224 0.764021 0.107813
0.135592 0.772376 0.106091
0.524485 0.803810 0.099615
0.913378 0.893829 0.093138
1.000000 0.894690 0.091417
0.039463 0.852625 0.102022
0.142831 0.860980 0.100300
0.531724 0.892414 0.093824
0.920617 0.923848 0.087347
1.000000 0.998803 0.085625
0.000000 0.017986 0.552082
0.086634 0.017986 0.548854
0.475526 0.017986 0.536710
0.864419 0.017986 0.524567
0.967788 0.017986 0.521339
0.000000 0.119203 0.541223
0.093873 0.119203 0.537996
0.482765 0.119203 0.525852
0.871658 0.119203 0.513708
0.975027 0.119203 0.510480
0.017739 0.500000 0.500371
0.119203 0.500000 0.500000
0.500000 0.500000 0.500000
0.888893 0.503238 0.493523
0.992261 0.504099 0.491802
0.034973 0.793557 0.486410
0.138342 0.801912 0.484689
0.527235 0.833346 0.478212
0.916127 0.894929 0.471736
1.000000 0.895790 0.470014
0.042212 0.882161 0.480619
0.145581 0.890516 0.478898
0.534474 0.921950 0.472421
0.923366 0.953384 0.465945
1.000000 0.999902 0.464223
0.000000 0.017986 0.928755
0.089383 0.017986 0.925527
0.478276 0.017986 0.913383
0.867169 0.017986 0.901240
0.970537 0.017986 0.898012
0.000000 0.119203 0.917896
0.096622 0.119203 0.914669
0.485515 0.119203 0.902525
0.874408 0.119203 0.890381
0.977776 0.119203 0.887154
0.017986 0.500000 0.880797
0.119203 0.500000 0.880797
0.502749 0.501100 0.878598
0.891642 0.504338 0.872121
0.995011 0.505199 0.870400
0.037723 0.823093 0.865008
0.141091 0.831448 0.863287
0.529984 0.862882 0.856810
0.918877 0.896029 0.850333
1.000000 0.896890 0.848612
0.044962 0.911697 0.859217
0.148330 0.920052 0.857495
0.537223 0.951486 0.851019
0.926116 0.982919 0.844542
1.000000 1.000000 0.842821
0.000000 0.017986 1.000000
0.090114 0.017986 1.000000
0.479007 0.017986 1.000000
0.867899 0.017986 1.000000
0.971268 0.017986 0.998133
0.000000 0.119203 1.000000
0.097353 0.119203 1.000000
0.486246 0.119203 1.000000
0.875138 0.119203 0.990502
0.978507 0.119203 0.987274
0.017986 0.500000 0.982014
0.119203 0.500000 0.982014
0.503480 0.501392 0.979230
0.892373 0.504630 0.972753
0.995742 0.505491 0.971032
0.038453 0.888984 0.965640
0.141822 0.889845 0.963919
0.530715 0.893083 0.957442
0.919608 0.896321 0.950965
1.000000 0.897182 0.949244
0.045692 0.919547 0.959849
0.149061 0.927903 0.958127
0.537954 0.959336 0.951651
0.926847 0.990770 0.945174
1.000000 1.000000 0.943453
